X:1
T: the Rakes of Mallow
T: Jolly Sailor
%T: Sandy Lent the Man His Mill
O: 1733
Z: John Chambers <jc@trillian.mit.edu>
B: Walsh "Caledonian Country Dances" 1733, p.34
B: Burke Thumoth collection (as “Rakes of Marlow”), 1745
M: C
L: 1/4
K: G
|: "G"GB GB | GB c/B/A/G/ | "D7"FA FA | FA d/c/B/A/ \
|| "G"GB GB | GB d2 | "D7"c/B/A/G/ F/G/A/c/ | "G"BG G2 :|
|: "G"gf/e/ dc | Bc "(D7)"d2 | "G"gf/e/ dc | Bg "D7"A2 \
|| "G"gf/e/ dc | BG "C"c2 | "D7"c/B/A/G/ F/G/A/c/ | "G"BG G2 :|
